dist/svg/mobile.svg

<!-- Generated by Trend Micro Style Portal -->
<svg version="1.1" xmlns="http://www.w3.org/2000/svg" width="16" height="16" viewBox="0 0 16 16">
  <title>mobile</title>
  <path fill="rgb(34,34,34)" d="M12 0h-8c-0.552 0-1 0.448-1 1v0 14c0 0.552 0.448 1 1 1v0h8c0.552 0 1-0.448 1-1v0-14c0-0.552-0.448-1-1-1v0zM9 15h-2v-1h2zM12 13h-8v-11h8z"></path>
</svg>

<svg width="16" height="16" viewBox="0 0 16 16" fill="rgb(34, 34, 34)" xmlns="http://www.w3.org/2000/svg"><title>mobile</title><path d="M12 0H4C3.448 0 3 0.448 3 1V15C3 15.552 3.448 16 4 16H12C12.552 16 13 15.552 13 15V1C13 0.448 12.552 0 12 0ZM9 15H7V14H9V15ZM12 13H4V2H12V13Z" fill="rgb(34, 34, 34)" fill-opacity="1.00"/></svg>
